X:1
T:Title
%%score 1 { ( 2 3 6 ) | ( 4 5 7 ) }
L:1/8
M:4/4
K:G
V:1 treble nm="Akkordion"
V:2 treble nm="Grand Piano"
V:3 treble 
V:6 treble 
V:4 bass 
V:5 bass 
V:7 bass 
V:1
 z4 z2[Q:1/4=86] GG | A2 B2 G2 EE | =F2 G2 E2 ED | CEAB c2 B2 | G4 z2 GG | AA B2 G2 FE | %6
 F2 G2 E2 EF | G2 FE G2 G2 |[M:11/8] F-F- F3 z z2 E ^D2 |[M:4/4] D2 EF G2 A2 | G2 F4 EG | %11
 F2 EG F3 E | D4 z2 D2 | D2 GB d2 d2 |[M:7/8] c2 E2 B3 |[M:1/4] A^D | %16
[M:17/16] D-<DGGA/-A/-A/-A-<AB |[M:4/4] G6 z2 | z8 |] %19
V:2
 z4 z2 z G | z G z G z G[K:bass]E,G | z[K:treble] =F z G z [CEG]E,[B,DFG] | %3
 z [A,CE] z [DE^G] z c z B | z G3- G2 z2 | A,F z F z [EG] z [B,EG] | z [B,^DA] z [DG] z [CEG]E,G | %7
 z GF,G z G z G |[M:11/8][K:bass] F,2 [F,A,CDF]3 z z z z z2 |[M:4/4] z B,E,B, z[K:treble] D z D | %10
 z D[K:bass] z D z DE,D | z [CD] z [A,CD] z [CD] z [A,CD] | z[K:treble] D3- D2 z2 | %13
 [B,D]2 [DG][B,DGB] [D=F^Gd]2 [DFGd]2 |[M:7/8] [CEc]2 [CE]2 [C^DB]3 |[M:1/4] z2 | %16
[M:17/16] z/ z/ z/ z/ z/ z/ z .G3/2 z/ z/ z/ z/ z |[M:4/4] [B,DG]2 G2 B2 d2 | g6 z2 |] %19
V:3
 z4 z2 G,2 | A,2 B,2 G,2[K:bass] z2 | =F,2[K:treble] G,2 E,2 z2 | z4 C2 B,2 | z2 D,2 G,2 G,G | %5
 z2 B,2 z4 | z2 G,2 z4 | G,2 z2 G,2 G,2 |[M:11/8][K:bass] x11 |[M:4/4] D,2 z2 G,2[K:treble] A,2 | %10
 G,2[K:bass] F,4 z2 | F,2 z2 F,4 | .D,2[K:treble] B,2 A,2 D2 | x8 |[M:7/8] x7 |[M:1/4] x2 | %16
[M:17/16] [G,B,D]-<[G,B,D][B,DG][B,DG][CA]-<[CA-][CDFA]3/2 z |[M:4/4] x8 | x8 |] %19
V:4
 z4 z2 z [CE] | z [CE] z [CE] z [CE] z [E,CE] | z[K:treble] [A,D] z [B,D=F] z[K:bass] G,, z D, | %3
 C,E,A,B, z[K:treble] [EA] z [DF] | z [B,D]3- [B,D]2 z [G,B,D] | z [A,B,^D] z D z B,F,E, | %6
 z B,, z B, z2 z [F,CE] | z [B,E] z [E,B,E] z [A,^C] z [A,C] |[M:11/8] z z z z z z z2 E,3 | %9
[M:4/4] z G, z [F,G,] z B, z B, | z [A,C] z [A,C] z [A,C] z [G,C] | z A,E,G, z A, z E, | %12
 z [G,B,] [^G,,=F,^G,]2 [A,,^F,]2 [D,A,C]2 | [G,,G,]2 [G,,G,]G,, [^G,,^G,]2 [G,,G,]2 | %14
[M:7/8] [A,,A,]2 [C,A,]2 [C,,C,]3 |[M:1/4][K:treble] A^D | %16
[M:17/16][K:bass] D,-<D,D,D, z E[D,,D,]3/2 z |[M:4/4] [G,,G,]2 [D,B,D]2[K:treble] [G,DG]2 [B,G]2 | %18
 [G,,G,DGB]6 z2 |] %19
V:5
 x8 | x8 | z4[K:treble] z2[K:bass] G,,2 | z4 A,,2[K:treble] D,2 | G,,2 z2 z4 | z4 G,2 z2 | %6
 F,2 B,,2 E,2 z2 | B,,4 A,,2 A,,2 |[M:11/8] D,,2 D,,3 z z z2 ^D,2 |[M:4/4] G,,2 z2 D,,2 z2 | %10
 A,,2 z2 z2 D,,2 | A,,2 z2 D,2 D,,2 | G,,2 z2 z4 | x8 |[M:7/8] x7 |[M:1/4][K:treble] x2 | %16
[M:17/16][K:bass] z/ z/ z/ z/ z/ z/ z D,-<D, z/ z/ z/ z |[M:4/4] x4[K:treble] x4 | x8 |] %19
V:6
 x8 | x6[K:bass] x2 | x[K:treble] x7 | x8 | G,4 z4 | x8 | x8 | x8 |[M:11/8][K:bass] x11 | %9
[M:4/4] x5[K:treble] x3 | x2[K:bass] x6 | x8 | x[K:treble] x7 | x8 |[M:7/8] x7 |[M:1/4] x2 | %16
[M:17/16] x17/2 |[M:4/4] x8 | x8 |] %19
V:7
 x8 | x8 | x[K:treble] x4[K:bass] x3 | x5[K:treble] x3 | x8 | x8 | z4 z C,3 | x8 |[M:11/8] x11 | %9
[M:4/4] x8 | x8 | x8 | x8 | x8 |[M:7/8] x7 |[M:1/4][K:treble] x2 |[M:17/16][K:bass] x17/2 | %17
[M:4/4] x4[K:treble] x4 | x8 |] %19

